X:1
T:Title
%%score 1 { 2 | 3 }
L:1/8
Q:1/4=100
M:4/4
K:G
V:1 treble nm="Grand Piano, Soprano"
V:2 treble nm="Choir Pad, Bass"
V:3 bass 
V:1
 [Gd][Ge] [Gd]2 [GB]2 [DA]2 | [DG]2 [EA]2 [EG][CE] [B,D]2 | [B,D][B,D] [DG]2 [DG]2 [GB]2 | %3
w: By~A.~B.~Woolverton,~1887 * * * *|||
 [GB]2 [FA]6 | [Gd][Ge] [Gd]2 [GB]2 [DA]2 | [DG]2 [EA]2 [EG][CE] [B,D]2 | %6
w: |||
 [B,D][B,D] [DG]2 [DG]2 [GB]2 | [FA]2 G6 | [DF][EG] [FA]4- [FA]/ z/ [FA] | [GB]>[DA] [B,G]6 | %10
w: ||||
 [FA][GB] [Ac]4- [Ac]/ z/ [Ac] | [Bd]>[Ac] [GB]6 | [Gd][Ge] [Gd]2 [GB]2 [DA]2 | %13
w: |||
 [DG]2 [EA]2 [EG][CE] [B,D]2 | [B,D][B,D] [DG]2 [DG]2 [GB]2 | [FA]2 G6- | G2 z2 z4 |] %17
w: ||||
V:2
 B,C B,2 D2 C2 | B,2 C2 G,2 G,2 | G,G, B,2 B,2[K:treble] D2 | D2 D6 | B,C B,2 D2 C2 | %5
 B,2 C2 G,2 G,2 | G,G,[K:treble] B,2 D2 D2 | C2 B,6 | z4 D>D D2 | z2 z D D>D D2 | z4 D>D D2 | %11
 z4 DD- D/D/D | B,C B,2 D2 C2 | B,2 C2 G,2 G,2 | G,G, B,2[K:treble] D2 D2 | C2 B,6- | B,2 z2 z4 |] %17
V:3
 G,G, G,2 G,2 G,2 | G,2 C,2 C,2 G,,2 | G,,G,, G,,2 G,,2 G,2 | G,2 D,6 | G,G, G,2 G,2 G,2 | %5
 G,2 C,2 C,2 G,,2 | G,,G,, G,,2 B,,2 D,2 | D,2 G,,6 | z4 D,>D, D,2 | z2 z G, G,>G, G,2 | %10
 z4 D,>D, D,2 | z4 G,G,- G,/G,/G, | G,A, G,2 G,2 G,2 | G,2 C,2 C,2 G,,2 | G,,G,, G,,2 B,,2 D,2 | %15
 D,2 G,,6- | G,,2 z2 z4 |] %17

